!!!OTL: DER BESTE FREUND IST IN DEM HIMMEL
!!!ARE: Europa, Mitteleuropa, Deutschland, Schlesien
!!!SCT: B0752
!!!YEM: Copyright 1995, estate of Helmut Schaffrath.
**kern
*ICvox
*Ivox
*M3/4
*k[b-]
*F:
{4f
=1
2cc
4cc
=2
4cc
4b-
4a
=3
4cc
4b-
4a
=4
4g
4f}
{4c
=5
4b-
4a
4g
=6
2a
4a
=7
4cc
4b-
4a
=8
2g}
{4f
=9
2cc
4cc
=10
4cc
4b-
4a
=11
4cc
4b-
4a
=12
4g
4f}
{4c
=13
4b-
4a
4g
=14
2a
4a
=15
4cc
4b-
4a
=16
2g}
{4g
=17
2g
4g
=18
2a
4a
=19
4b-
4a
4b-
=20
2cc}
{4cc
=21
4ff
4ee
4dd
=22
4.cc
8dd
8cc
8b-
=23
2a
4g
=24
2f}
==
!!!AGN: Moral - Lied, religioes
!!!ONB: ESAC (Essen Associative Code) Database: BOEHME
!!!AMT: simple triple
!!!AIN: vox
!!!EED: Helmut Schaffrath
!!!EEV: 1.0
*-
